assets/Filter1.svg

<svg id="Capa_1" enable-background="new 0 0 512 512" height="512" viewBox="0 0 512 512" width="512" xmlns="http://www.w3.org/2000/svg"><g><path d="m512 91.96v328.08c0 50.71-41.25 91.96-91.96 91.96h-328.08c-50.71 0-91.96-41.25-91.96-91.96v-328.08c0-50.71 41.25-91.96 91.96-91.96h328.08c50.71 0 91.96 41.25 91.96 91.96z" fill="#ecf9fd"/><path d="m512 91.96v328.08c0 50.71-41.25 91.96-91.96 91.96h-164.04v-512h164.04c50.71 0 91.96 41.25 91.96 91.96z" fill="#d9f3fc"/><path d="m432.69 399.56h-353.38c-19.92 0-19.93-30.12 0-30.12h353.38c19.92 0 19.93 30.12 0 30.12z" fill="#00357b"/><path d="m432.69 399.56h-176.69v-30.12h176.69c19.92 0 19.93 30.12 0 30.12z" fill="#001737"/><path d="m431.18 269.55h-353.38c-19.92 0-19.92-30.11 0-30.11h353.38c19.93 0 19.93 30.11 0 30.11z" fill="#00357b"/><path d="m431.18 269.55h-175.18v-30.11h175.18c19.93 0 19.93 30.11 0 30.11z" fill="#001737"/><path d="m431.18 141.05h-353.38c-19.92 0-19.92-30.12 0-30.12h353.38c19.93 0 19.93 30.12 0 30.12z" fill="#00357b"/><path d="m431.18 141.05h-175.18v-30.12h175.18c19.93 0 19.93 30.12 0 30.12z" fill="#001737"/><circle cx="352.376" cy="256" fill="#58b354" r="47.184"/><path d="m399.561 256c0 26.022-21.163 47.184-47.184 47.184v-94.369c26.021.001 47.184 21.163 47.184 47.185z" fill="#00a963"/><circle cx="223.875" cy="384.502" fill="#ffec00" r="47.184"/><path d="m271.059 384.502c0 26.022-21.163 47.184-47.184 47.184v-94.369c26.021.001 47.184 21.163 47.184 47.185z" fill="#ffd92e"/><circle cx="159.624" cy="127.498" fill="#ff2828" r="47.184"/><path d="m206.808 127.498c0 25.69-20.621 46.632-46.18 47.164v-94.328c25.559.532 46.18 21.474 46.18 47.164z" fill="#c00"/></g></svg>

<svg height="512" width="512" xmlns="http://www.w3.org/2000/svg"><path d="M512 91.96v328.08c0 50.71-41.25 91.96-91.96 91.96H91.96C41.25 512 0 470.75 0 420.04V91.96C0 41.25 41.25 0 91.96 0h328.08C470.75 0 512 41.25 512 91.96z" fill="#ecf9fd"/><path d="M512 91.96v328.08c0 50.71-41.25 91.96-91.96 91.96H256V0h164.04C470.75 0 512 41.25 512 91.96z" fill="#d9f3fc"/><path d="M432.69 399.56H79.31c-19.92 0-19.93-30.12 0-30.12h353.38c19.92 0 19.93 30.12 0 30.12z" fill="#00357b"/><path d="M432.69 399.56H256v-30.12h176.69c19.92 0 19.93 30.12 0 30.12z" fill="#001737"/><path d="M431.18 269.55H77.8c-19.92 0-19.92-30.11 0-30.11h353.38c19.93 0 19.93 30.11 0 30.11z" fill="#00357b"/><path d="M431.18 269.55H256v-30.11h175.18c19.93 0 19.93 30.11 0 30.11z" fill="#001737"/><path d="M431.18 141.05H77.8c-19.92 0-19.92-30.12 0-30.12h353.38c19.93 0 19.93 30.12 0 30.12z" fill="#00357b"/><path d="M431.18 141.05H256v-30.12h175.18c19.93 0 19.93 30.12 0 30.12z" fill="#001737"/><circle cx="352.376" cy="256" fill="#58b354" r="47.184"/><path d="M399.561 256c0 26.022-21.163 47.184-47.184 47.184v-94.369c26.021.001 47.184 21.163 47.184 47.185z" fill="#00a963"/><circle cx="223.875" cy="384.502" fill="#ffec00" r="47.184"/><path d="M271.059 384.502c0 26.022-21.163 47.184-47.184 47.184v-94.369c26.021.001 47.184 21.163 47.184 47.185z" fill="#ffd92e"/><circle cx="159.624" cy="127.498" fill="#ff2828" r="47.184"/><path d="M206.808 127.498c0 25.69-20.621 46.632-46.18 47.164V80.334c25.559.532 46.18 21.474 46.18 47.164z" fill="#c00"/></svg>
